packages/icons/src/face-sad-fill.svg

<svg width="24" height="24" viewBox="0 0 24 24" fill="none" xmlns="http://www.w3.org/2000/svg">
<path d="M15.5 11C15.9167 11 16.2708 10.8542 16.5625 10.5625C16.8542 10.2708 17 9.91667 17 9.5C17 9.08333 16.8542 8.72917 16.5625 8.4375C16.2708 8.14583 15.9167 8 15.5 8C15.0833 8 14.7292 8.14583 14.4375 8.4375C14.1458 8.72917 14 9.08333 14 9.5C14 9.91667 14.1458 10.2708 14.4375 10.5625C14.7292 10.8542 15.0833 11 15.5 11ZM8.5 11C8.91667 11 9.27083 10.8542 9.5625 10.5625C9.85417 10.2708 10 9.91667 10 9.5C10 9.08333 9.85417 8.72917 9.5625 8.4375C9.27083 8.14583 8.91667 8 8.5 8C8.08333 8 7.72917 8.14583 7.4375 8.4375C7.14583 8.72917 7 9.08333 7 9.5C7 9.91667 7.14583 10.2708 7.4375 10.5625C7.72917 10.8542 8.08333 11 8.5 11ZM12 13.5C10.8667 13.5 9.8375 13.8208 8.9125 14.4625C7.9875 15.1042 7.31667 15.95 6.9 17H8.55C8.91667 16.3833 9.40417 15.8958 10.0125 15.5375C10.6208 15.1792 11.2833 15 12 15C12.7167 15 13.3792 15.1792 13.9875 15.5375C14.5958 15.8958 15.0833 16.3833 15.45 17H17.1C16.6833 15.95 16.0125 15.1042 15.0875 14.4625C14.1625 13.8208 13.1333 13.5 12 13.5ZM12 22C10.6167 22 9.31667 21.7375 8.1 21.2125C6.88333 20.6875 5.825 19.975 4.925 19.075C4.025 18.175 3.3125 17.1167 2.7875 15.9C2.2625 14.6833 2 13.3833 2 12C2 10.6167 2.2625 9.31667 2.7875 8.1C3.3125 6.88333 4.025 5.825 4.925 4.925C5.825 4.025 6.88333 3.3125 8.1 2.7875C9.31667 2.2625 10.6167 2 12 2C13.3833 2 14.6833 2.2625 15.9 2.7875C17.1167 3.3125 18.175 4.025 19.075 4.925C19.975 5.825 20.6875 6.88333 21.2125 8.1C21.7375 9.31667 22 10.6167 22 12C22 13.3833 21.7375 14.6833 21.2125 15.9C20.6875 17.1167 19.975 18.175 19.075 19.075C18.175 19.975 17.1167 20.6875 15.9 21.2125C14.6833 21.7375 13.3833 22 12 22Z" fill="black"/>
</svg>

<svg xmlns="http://www.w3.org/2000/svg" width="24" height="24" fill="none" viewBox="0 0 24 24">
  <path fill="#000" d="M15.5 11c.417 0 .77-.146 1.063-.438.291-.291.437-.645.437-1.062 0-.417-.146-.77-.438-1.063A1.447 1.447 0 0 0 15.5 8c-.417 0-.77.146-1.063.438A1.446 1.446 0 0 0 14 9.5c0 .417.146.77.438 1.063.291.291.645.437 1.062.437Zm-7 0c.417 0 .77-.146 1.063-.438.291-.291.437-.645.437-1.062 0-.417-.146-.77-.438-1.063A1.447 1.447 0 0 0 8.5 8c-.417 0-.77.146-1.063.438A1.447 1.447 0 0 0 7 9.5c0 .417.146.77.438 1.063.291.291.645.437 1.062.437Zm3.5 2.5a5.29 5.29 0 0 0-3.088.963A5.485 5.485 0 0 0 6.9 17h1.65a4.099 4.099 0 0 1 1.462-1.463A3.846 3.846 0 0 1 12 15c.717 0 1.38.18 1.988.537A4.1 4.1 0 0 1 15.45 17h1.65a5.485 5.485 0 0 0-2.013-2.537A5.294 5.294 0 0 0 12 13.5Zm0 8.5a9.738 9.738 0 0 1-3.9-.788 10.099 10.099 0 0 1-3.175-2.137c-.9-.9-1.612-1.958-2.137-3.175A9.738 9.738 0 0 1 2 12a9.74 9.74 0 0 1 .788-3.9 10.099 10.099 0 0 1 2.137-3.175c.9-.9 1.958-1.612 3.175-2.137A9.738 9.738 0 0 1 12 2a9.74 9.74 0 0 1 3.9.788 10.098 10.098 0 0 1 3.175 2.137c.9.9 1.613 1.958 2.137 3.175A9.738 9.738 0 0 1 22 12a9.738 9.738 0 0 1-.788 3.9 10.098 10.098 0 0 1-2.137 3.175c-.9.9-1.958 1.613-3.175 2.137A9.738 9.738 0 0 1 12 22Z"/>
</svg>
